img/download.svg

<svg fill="none" height="800" viewBox="0 0 24 24" width="800" xmlns="http://www.w3.org/2000/svg">
    <path clip-rule="evenodd"
          d="m2 12c0-4.71405 0-7.07107 1.46447-8.53553 1.46446-1.46447 3.82148-1.46447 8.53553-1.46447 4.714 0 7.0711 0 8.5355 1.46447 1.4645 1.46446 1.4645 3.82148 1.4645 8.53553 0 4.714 0 7.0711-1.4645 8.5355-1.4644 1.4645-3.8215 1.4645-8.5355 1.4645-4.71405 0-7.07107 0-8.53553-1.4645-1.46447-1.4644-1.46447-3.8215-1.46447-8.5355zm10-5.75c.4142 0 .75.33579.75.75v5.1893l1.7197-1.7196c.2929-.2929.7677-.2929 1.0606 0s.2929.7677 0 1.0606l-3 3c-.1406.1407-.3314.2197-.5303.2197s-.3897-.079-.5303-.2197l-3.00003-3c-.29289-.2929-.29289-.7677 0-1.0606s.76777-.2929 1.06066 0l1.71967 1.7196v-5.1893c0-.41421.3358-.75.75-.75zm-4 10c-.41421 0-.75.3358-.75.75s.33579.75.75.75h8c.4142 0 .75-.3358.75-.75s-.3358-.75-.75-.75z"
          fill="#ffffff" fill-rule="evenodd"/>
</svg>

<?xml version="1.0" encoding="UTF-8" standalone="no"?>
<svg width="100%" height="100%" viewBox="0 0 800 800" version="1.1" xmlns="http://www.w3.org/2000/svg"
     style="fill-rule:evenodd;clip-rule:evenodd;stroke-linejoin:round;stroke-miterlimit:2;">
    <g transform="matrix(25,0,0,25,100,100)">
        <path fill="black"
              d="M2,12C2,7.286 2,4.929 3.464,3.464C4.929,2 7.286,2 12,2C16.714,2 19.071,2 20.535,3.464C22,4.929 22,7.286 22,12C22,16.714 22,19.071 20.535,20.535C19.071,22 16.714,22 12,22C7.286,22 4.929,22 3.464,20.535C2,19.071 2,16.714 2,12ZM8,16.25C7.586,16.25 7.25,16.586 7.25,17C7.25,17.414 7.586,17.75 8,17.75L16,17.75C16.414,17.75 16.75,17.414 16.75,17C16.75,16.586 16.414,16.25 16,16.25L8,16.25ZM12,6.25C11.586,6.25 11.25,6.586 11.25,7L11.25,12.189L9.53,10.47C9.237,10.177 8.763,10.177 8.47,10.47C8.177,10.763 8.177,11.237 8.47,11.53L11.47,14.53C11.61,14.671 11.801,14.75 12,14.75C12.199,14.75 12.39,14.671 12.53,14.53L15.53,11.53C15.823,11.237 15.823,10.763 15.53,10.47C15.237,10.177 14.763,10.177 14.47,10.47L12.75,12.189L12.75,7C12.75,6.586 12.414,6.25 12,6.25Z"/>
    </g>
</svg>
